img/raw/icons/Hamburger_Menu.svg

<?xml version="1.0" encoding="utf-8"?>
<!-- Generator: Adobe Illustrator 23.0.2, SVG Export Plug-In . SVG Version: 6.00 Build 0)  -->
<svg version="1.1" id="Layer_1" xmlns="http://www.w3.org/2000/svg" xmlns:xlink="http://www.w3.org/1999/xlink" x="0px" y="0px"
	 viewBox="0 0 500 500" style="enable-background:new 0 0 500 500;" xml:space="preserve">
<style type="text/css">
	.st0{fill:#1A355B;}
</style>
<g id="surface1">
	<path class="st0" d="M0,75v50h500V75H0z M0,225v50h500v-50H0z M0,375v50h500v-50H0z"/>
</g>
</svg>

<?xml version="1.0" encoding="UTF-8"?>
<svg xmlns="http://www.w3.org/2000/svg" xmlns:xlink="http://www.w3.org/1999/xlink" width="500pt" height="500pt" viewBox="0 0 500 500" version="1.1">
<g id="surface1">
<path style=" stroke:none;fill-rule:nonzero;fill:#5B5B5B;fill-opacity:1;" d="M 0 75 L 0 125 L 500 125 L 500 75 Z M 0 225 L 0 275 L 500 275 L 500 225 Z M 0 375 L 0 425 L 500 425 L 500 375 Z "/>
</g>
</svg>
